fs/text_indent_increase_ltr_16_filled.svg

<svg viewBox="0 0 16 16" fill="none" xmlns="http://www.w3.org/2000/svg" height="1em" width="1em">
  <path d="M5.75 3C5.33579 3 5 3.33579 5 3.75C5 4.16421 5.33579 4.5 5.75 4.5H11.25C11.6642 4.5 12 4.16421 12 3.75C12 3.33579 11.6642 3 11.25 3H5.75ZM5.75 7C5.33579 7 5 7.33579 5 7.75C5 8.16421 5.33579 8.5 5.75 8.5H14.25C14.6642 8.5 15 8.16421 15 7.75C15 7.33579 14.6642 7 14.25 7H5.75ZM5.75 11C5.33579 11 5 11.3358 5 11.75C5 12.1642 5.33579 12.5 5.75 12.5H9.25C9.66421 12.5 10 12.1642 10 11.75C10 11.3358 9.66421 11 9.25 11H5.75ZM2.28033 5.71967C1.98744 5.42678 1.51256 5.42678 1.21967 5.71967C0.926777 6.01256 0.926777 6.48744 1.21967 6.78033L2.18934 7.75L1.21967 8.71967C0.926777 9.01256 0.926777 9.48744 1.21967 9.78033C1.51256 10.0732 1.98744 10.0732 2.28033 9.78033L3.78033 8.28033C4.07322 7.98744 4.07322 7.51256 3.78033 7.21967L2.28033 5.71967Z" fill="#212121"/>
</svg>

<svg viewBox="0 0 16 16" fill="none" xmlns="http://www.w3.org/2000/svg" height="1em" width="1em">
  <path d="M5.75 3a.75.75 0 0 0 0 1.5h5.5a.75.75 0 0 0 0-1.5h-5.5Zm0 4a.75.75 0 0 0 0 1.5h8.5a.75.75 0 0 0 0-1.5h-8.5Zm0 4a.75.75 0 0 0 0 1.5h3.5a.75.75 0 0 0 0-1.5h-3.5ZM2.28 5.72a.75.75 0 0 0-1.06 1.06l.97.97-.97.97a.75.75 0 0 0 1.06 1.06l1.5-1.5a.75.75 0 0 0 0-1.06l-1.5-1.5Z" fill="#212121"/>
</svg>
